Newaita/actions/scalable/layer-visible-off.svg

<?xml version="1.0" encoding="UTF-8"?>
<svg xmlns="http://www.w3.org/2000/svg" xmlns:xlink="http://www.w3.org/1999/xlink" width="512pt" height="512pt" viewBox="0 0 512 512" version="1.1">
<g id="surface1">
<path style=" stroke:none;fill-rule:nonzero;fill:rgb(47.058824%,56.470591%,61.176473%);fill-opacity:1;" d="M 52.921875 25.167969 C 35.332031 25.167969 21.167969 39.332031 21.167969 56.921875 L 21.167969 395.621094 C 21.167969 413.210938 35.332031 427.375 52.921875 427.375 L 391.621094 427.375 C 409.210938 427.375 423.375 413.210938 423.375 395.621094 L 423.375 56.921875 C 423.375 39.332031 409.210938 25.167969 391.621094 25.167969 Z M 74.089844 56.921875 L 370.453125 56.921875 C 382.179688 56.921875 391.621094 66.363281 391.621094 78.089844 L 391.621094 374.453125 C 391.621094 386.179688 382.179688 395.621094 370.453125 395.621094 L 74.089844 395.621094 C 62.363281 395.621094 52.921875 386.179688 52.921875 374.453125 L 52.921875 78.089844 C 52.921875 66.363281 62.363281 56.921875 74.089844 56.921875 Z M 74.089844 56.921875 "/>
<path style=" stroke:none;fill-rule:nonzero;fill:rgb(25.882354%,25.882354%,25.882354%);fill-opacity:1;" d="M 470.714844 25.167969 C 462.078125 25.167969 455.125 32.25 455.125 41.046875 L 455.125 459.125 L 37.046875 459.125 C 28.25 459.125 21.167969 466.078125 21.167969 474.714844 L 21.167969 475.289062 C 21.167969 483.925781 28.25 490.878906 37.046875 490.878906 L 471.289062 490.878906 C 475.53125 490.878906 479.363281 489.171875 482.167969 486.390625 C 482.207031 486.355469 482.246094 486.320312 482.28125 486.28125 C 482.316406 486.246094 482.355469 486.207031 482.390625 486.167969 C 485.171875 483.363281 486.878906 479.53125 486.878906 475.289062 L 486.878906 41.046875 C 486.878906 32.25 479.925781 25.167969 471.289062 25.167969 Z M 470.714844 25.167969 "/>
</g>
</svg>

<svg xmlns="http://www.w3.org/2000/svg" width="512pt" height="512pt" viewBox="0 0 512 512"><path d="M52.922 25.168c-17.59 0-31.754 14.164-31.754 31.754v338.7c0 17.589 14.164 31.753 31.754 31.753h338.7c17.589 0 31.753-14.164 31.753-31.754v-338.7c0-17.589-14.164-31.753-31.754-31.753zM74.09 56.922h296.363a21.122 21.122 0 0 1 21.168 21.168v296.363a21.122 21.122 0 0 1-21.168 21.168H74.09a21.122 21.122 0 0 1-21.168-21.168V78.09A21.122 21.122 0 0 1 74.09 56.922zm0 0" fill="#78909c"/><path d="M470.715 25.168c-8.637 0-15.59 7.082-15.59 15.879v418.078H37.047c-8.797 0-15.879 6.953-15.879 15.59v.574c0 8.637 7.082 15.59 15.879 15.59h434.242c4.242 0 8.074-1.707 10.879-4.488.039-.036.078-.07.113-.11.035-.035.074-.074.11-.113 2.78-2.805 4.488-6.637 4.488-10.879V41.047c0-8.797-6.953-15.879-15.59-15.879zm0 0" fill="#424242"/></svg>
